dist/svgs/unicons/line/exposure-alt.svg

<svg xmlns="http://www.w3.org/2000/svg" viewBox="0 0 24 24"><path d="M11 6H7a1 1 0 000 2h4a1 1 0 000-2zm8-4H5a3 3 0 00-3 3v14a3 3 0 003 3h14a3 3 0 003-3V5a3 3 0 00-3-3zM4 18.59V5a1 1 0 011-1h13.59zM20 19a1 1 0 01-1 1H5.41L20 5.41zm-7-2h1v1a1 1 0 002 0v-1h1a1 1 0 000-2h-1v-1a1 1 0 00-2 0v1h-1a1 1 0 000 2z"/></svg>

<svg xmlns="http://www.w3.org/2000/svg" viewBox="0 0 24 24"><path d="M11,6H7A1,1,0,0,0,7,8h4a1,1,0,0,0,0-2Zm8-4H5A3,3,0,0,0,2,5V19a3,3,0,0,0,3,3H19a3,3,0,0,0,3-3V5A3,3,0,0,0,19,2ZM4,18.59V5A1,1,0,0,1,5,4H18.59ZM20,19a1,1,0,0,1-1,1H5.41L20,5.41Zm-7-2h1v1a1,1,0,0,0,2,0V17h1a1,1,0,0,0,0-2H16V14a1,1,0,0,0-2,0v1H13a1,1,0,0,0,0,2Z"/></svg>
